storage/app/icons/phosphoricons/thin/cards-thin.svg

<svg xmlns="http://www.w3.org/2000/svg" fill="currentColor" viewBox="0 0 256 256"><path d="M184 76H40a12 12 0 0 0-12 12v112a12 12 0 0 0 12 12h144a12 12 0 0 0 12-12V88a12 12 0 0 0-12-12m4 124a4 4 0 0 1-4 4H40a4 4 0 0 1-4-4V88a4 4 0 0 1 4-4h144a4 4 0 0 1 4 4Zm40-144v120a4 4 0 0 1-8 0V56a4 4 0 0 0-4-4H64a4 4 0 0 1 0-8h152a12 12 0 0 1 12 12"/></svg>

<svg xmlns="http://www.w3.org/2000/svg" viewBox="0 0 256 256" fill="currentColor"><path d="M184,76H40A12,12,0,0,0,28,88V200a12,12,0,0,0,12,12H184a12,12,0,0,0,12-12V88A12,12,0,0,0,184,76Zm4,124a4,4,0,0,1-4,4H40a4,4,0,0,1-4-4V88a4,4,0,0,1,4-4H184a4,4,0,0,1,4,4ZM228,56V176a4,4,0,0,1-8,0V56a4,4,0,0,0-4-4H64a4,4,0,0,1,0-8H216A12,12,0,0,1,228,56Z"/></svg>
